src/assets/icons/bump-country-small.svg

<?xml version="1.0" encoding="UTF-8"?>
<svg width="47px" height="27px" viewBox="0 0 47 27" version="1.1" xmlns="http://www.w3.org/2000/svg" xmlns:xlink="http://www.w3.org/1999/xlink">
    <!-- Generator: Sketch 49.3 (51167) - http://www.bohemiancoding.com/sketch -->
    <title>Group 14 Copy 7</title>
    <desc>Created with Sketch.</desc>
    <defs>
        <filter x="-25.0%" y="-60.0%" width="150.0%" height="220.0%" filterUnits="objectBoundingBox" id="filter-1">
            <feOffset dx="0" dy="0" in="SourceAlpha" result="shadowOffsetOuter1"></feOffset>
            <feGaussianBlur stdDeviation="3" in="shadowOffsetOuter1" result="shadowBlurOuter1"></feGaussianBlur>
            <feColorMatrix values="0 0 0 0 1   0 0 0 0 1   0 0 0 0 1  0 0 0 0.5 0" type="matrix" in="shadowBlurOuter1" result="shadowMatrixOuter1"></feColorMatrix>
            <feMerge>
                <feMergeNode in="shadowMatrixOuter1"></feMergeNode>
                <feMergeNode in="SourceGraphic"></feMergeNode>
            </feMerge>
        </filter>
    </defs>
    <g id="pro-profile" stroke="none" stroke-width="1" fill="none" fill-rule="evenodd">
        <g id="PROFILE-TABS-suscription-selected" transform="translate(-1162.000000, -676.000000)" fill="#56ACFF">
            <g id="Group-14-Copy-7" filter="url(#filter-1)" transform="translate(1168.000000, 682.000000)">
                <path d="M6.14088249,13.0967775 C8.03990414,14.1711675 10.4539146,13.5086956 11.5331569,11.6167324 L11.6729775,11.6958597 L11.5331345,11.6167718 C12.611818,9.7245442 11.9467117,7.32011593 10.0472326,6.24586856 L1.23087301,1.25191332 C1.07498758,2.13081261 1.30706341,2.76873148 1.96195922,3.13920918 L8.94908485,7.09185438 C9.20355382,7.2354817 9.29277694,7.55828649 9.14829221,7.81224693 C9.00322778,8.06536675 8.68011292,8.1540585 8.42557608,8.01039278 L1.8252763,4.27597213 C1.62784605,5.01725325 1.94744282,5.81252816 2.6332299,6.2004812 L7.03549832,8.69148522 C7.29102394,8.83511049 7.38034116,9.15760162 7.23520537,9.41084437 C7.09082688,9.66461968 6.76636587,9.75391789 6.512242,9.60943028 L2.35178367,7.25558094 C2.15416548,7.99713985 2.47355245,8.79226597 3.15974242,9.18009785 L5.43374025,10.4667017 C5.68818564,10.6113717 5.77765967,10.9335721 5.63275782,11.1864066 C5.48855874,11.4398666 5.1644689,11.5287359 4.90974622,11.3849653 L4.41539885,11.1050552 C4.74189261,11.9426623 5.34447479,12.6459159 6.14088249,13.0967775 Z" id="Path" opacity="0.4"></path>
                <path d="M0.240195456,0.808824835 C0.377686353,0.224344038 1.03933072,-0.0645745328 1.5631941,0.231671157 L10.5708693,5.32740247 L10.4914493,5.46668125 L10.5709009,5.32742036 C12.9796593,6.6907964 13.8230434,9.73961291 12.4545293,12.1383133 C11.0867101,14.5371325 8.02518728,15.3770937 5.6172383,14.0145039 C4.26045338,13.2469295 3.35083533,11.9074177 3.13029285,10.3778112 L2.63614775,10.0978522 C1.39995247,9.39911195 0.90829761,7.88948336 1.46530644,6.60146752 C0.72737007,5.82069555 0.509300453,4.68107132 0.915644834,3.67950952 C0.169804108,2.99517015 -0.0375080446,1.9933524 0.240195456,0.808824835 Z M6.14088249,13.0967775 C8.03990414,14.1711675 10.4539146,13.5086956 11.5331569,11.6167324 L11.6729775,11.6958597 L11.5331345,11.6167718 C12.611818,9.7245442 11.9467117,7.32011593 10.0472326,6.24586856 L1.23087301,1.25191332 C1.07498758,2.13081261 1.30706341,2.76873148 1.96195922,3.13920918 L8.94908485,7.09185438 C9.20355382,7.2354817 9.29277694,7.55828649 9.14829221,7.81224693 C9.00322778,8.06536675 8.68011292,8.1540585 8.42557608,8.01039278 L1.8252763,4.27597213 C1.62784605,5.01725325 1.94744282,5.81252816 2.6332299,6.2004812 L7.03549832,8.69148522 C7.29102394,8.83511049 7.38034116,9.15760162 7.23520537,9.41084437 C7.09082688,9.66461968 6.76636587,9.75391789 6.512242,9.60943028 L2.35178367,7.25558094 C2.15416548,7.99713985 2.47355245,8.79226597 3.15974242,9.18009785 L5.43374025,10.4667017 C5.68818564,10.6113717 5.77765967,10.9335721 5.63275782,11.1864066 C5.48855874,11.4398666 5.1644689,11.5287359 4.90974622,11.3849653 L4.41539885,11.1050552 C4.74189261,11.9426623 5.34447479,12.6459159 6.14088249,13.0967775 Z" id="wing-copy-6" fill-rule="nonzero"></path>
                <g id="Group-11" transform="translate(11.000000, 0.000000)">
                    <path d="M6.03784425,13.0967775 C7.9368659,14.1711675 10.3508764,13.5086956 11.4301187,11.6167324 L11.5699392,11.6958597 L11.4300963,11.6167718 C12.5087797,9.7245442 11.8436735,7.32011593 9.94419432,6.24586856 L1.12783477,1.25191332 C0.971949337,2.13081261 1.20402517,2.76873148 1.85892098,3.13920918 L8.84604661,7.09185438 C9.10051558,7.2354817 9.1897387,7.55828649 9.04525397,7.81224693 C8.90018954,8.06536675 8.57707468,8.1540585 8.32253784,8.01039278 L1.72223806,4.27597213 C1.52480781,5.01725325 1.84440458,5.81252816 2.53019166,6.2004812 L6.93246008,8.69148522 C7.1879857,8.83511049 7.27730292,9.15760162 7.13216713,9.41084437 C6.98778864,9.66461968 6.66332763,9.75391789 6.40920376,9.60943028 L2.24874543,7.25558094 C2.05112724,7.99713985 2.37051421,8.79226597 3.05670418,9.18009785 L5.33070201,10.4667017 C5.5851474,10.6113717 5.67462143,10.9335721 5.52971958,11.1864066 C5.3855205,11.4398666 5.06143066,11.5287359 4.80670798,11.3849653 L4.31236061,11.1050552 C4.63885437,11.9426623 5.24143655,12.6459159 6.03784425,13.0967775 Z" id="Path" opacity="0.4"></path>
                    <path d="M0.137157215,0.808824835 C0.274648112,0.224344038 0.936292474,-0.0645745328 1.46015586,0.231671157 L10.4678311,5.32740247 L10.3884111,5.46668125 L10.4678627,5.32742036 C12.8766211,6.6907964 13.7200052,9.73961291 12.351491,12.1383133 C10.9836719,14.5371325 7.92214904,15.3770937 5.51420006,14.0145039 C4.15741514,13.2469295 3.24779709,11.9074177 3.02725461,10.3778112 L2.53310951,10.0978522 C1.29691423,9.39911195 0.805259369,7.88948336 1.3622682,6.60146752 C0.624331829,5.82069555 0.406262212,4.68107132 0.812606593,3.67950952 C0.0667658671,2.99517015 -0.140546286,1.9933524 0.137157215,0.808824835 Z M6.03784425,13.0967775 C7.9368659,14.1711675 10.3508764,13.5086956 11.4301187,11.6167324 L11.5699392,11.6958597 L11.4300963,11.6167718 C12.5087797,9.7245442 11.8436735,7.32011593 9.94419432,6.24586856 L1.12783477,1.25191332 C0.971949337,2.13081261 1.20402517,2.76873148 1.85892098,3.13920918 L8.84604661,7.09185438 C9.10051558,7.2354817 9.1897387,7.55828649 9.04525397,7.81224693 C8.90018954,8.06536675 8.57707468,8.1540585 8.32253784,8.01039278 L1.72223806,4.27597213 C1.52480781,5.01725325 1.84440458,5.81252816 2.53019166,6.2004812 L6.93246008,8.69148522 C7.1879857,8.83511049 7.27730292,9.15760162 7.13216713,9.41084437 C6.98778864,9.66461968 6.66332763,9.75391789 6.40920376,9.60943028 L2.24874543,7.25558094 C2.05112724,7.99713985 2.37051421,8.79226597 3.05670418,9.18009785 L5.33070201,10.4667017 C5.5851474,10.6113717 5.67462143,10.9335721 5.52971958,11.1864066 C5.3855205,11.4398666 5.06143066,11.5287359 4.80670798,11.3849653 L4.31236061,11.1050552 C4.63885437,11.9426623 5.24143655,12.6459159 6.03784425,13.0967775 Z" id="wing-copy-7" fill-rule="nonzero"></path>
                </g>
                <g id="Group-11-Copy" transform="translate(22.000000, 0.000000)">
                    <path d="M6.03784425,13.0967775 C7.9368659,14.1711675 10.3508764,13.5086956 11.4301187,11.6167324 L11.5699392,11.6958597 L11.4300963,11.6167718 C12.5087797,9.7245442 11.8436735,7.32011593 9.94419432,6.24586856 L1.12783477,1.25191332 C0.971949337,2.13081261 1.20402517,2.76873148 1.85892098,3.13920918 L8.84604661,7.09185438 C9.10051558,7.2354817 9.1897387,7.55828649 9.04525397,7.81224693 C8.90018954,8.06536675 8.57707468,8.1540585 8.32253784,8.01039278 L1.72223806,4.27597213 C1.52480781,5.01725325 1.84440458,5.81252816 2.53019166,6.2004812 L6.93246008,8.69148522 C7.1879857,8.83511049 7.27730292,9.15760162 7.13216713,9.41084437 C6.98778864,9.66461968 6.66332763,9.75391789 6.40920376,9.60943028 L2.24874543,7.25558094 C2.05112724,7.99713985 2.37051421,8.79226597 3.05670418,9.18009785 L5.33070201,10.4667017 C5.5851474,10.6113717 5.67462143,10.9335721 5.52971958,11.1864066 C5.3855205,11.4398666 5.06143066,11.5287359 4.80670798,11.3849653 L4.31236061,11.1050552 C4.63885437,11.9426623 5.24143655,12.6459159 6.03784425,13.0967775 Z" id="Path" opacity="0.4"></path>
                    <path d="M0.137157215,0.808824835 C0.274648112,0.224344038 0.936292474,-0.0645745328 1.46015586,0.231671157 L10.4678311,5.32740247 L10.3884111,5.46668125 L10.4678627,5.32742036 C12.8766211,6.6907964 13.7200052,9.73961291 12.351491,12.1383133 C10.9836719,14.5371325 7.92214904,15.3770937 5.51420006,14.0145039 C4.15741514,13.2469295 3.24779709,11.9074177 3.02725461,10.3778112 L2.53310951,10.0978522 C1.29691423,9.39911195 0.805259369,7.88948336 1.3622682,6.60146752 C0.624331829,5.82069555 0.406262212,4.68107132 0.812606593,3.67950952 C0.0667658671,2.99517015 -0.140546286,1.9933524 0.137157215,0.808824835 Z M6.03784425,13.0967775 C7.9368659,14.1711675 10.3508764,13.5086956 11.4301187,11.6167324 L11.5699392,11.6958597 L11.4300963,11.6167718 C12.5087797,9.7245442 11.8436735,7.32011593 9.94419432,6.24586856 L1.12783477,1.25191332 C0.971949337,2.13081261 1.20402517,2.76873148 1.85892098,3.13920918 L8.84604661,7.09185438 C9.10051558,7.2354817 9.1897387,7.55828649 9.04525397,7.81224693 C8.90018954,8.06536675 8.57707468,8.1540585 8.32253784,8.01039278 L1.72223806,4.27597213 C1.52480781,5.01725325 1.84440458,5.81252816 2.53019166,6.2004812 L6.93246008,8.69148522 C7.1879857,8.83511049 7.27730292,9.15760162 7.13216713,9.41084437 C6.98778864,9.66461968 6.66332763,9.75391789 6.40920376,9.60943028 L2.24874543,7.25558094 C2.05112724,7.99713985 2.37051421,8.79226597 3.05670418,9.18009785 L5.33070201,10.4667017 C5.5851474,10.6113717 5.67462143,10.9335721 5.52971958,11.1864066 C5.3855205,11.4398666 5.06143066,11.5287359 4.80670798,11.3849653 L4.31236061,11.1050552 C4.63885437,11.9426623 5.24143655,12.6459159 6.03784425,13.0967775 Z" id="wing-copy-7" fill-rule="nonzero"></path>
                </g>
            </g>
        </g>
    </g>
</svg>

<svg width="47" height="27" viewBox="0 0 47 27" xmlns="http://www.w3.org/2000/svg"><defs><filter x="-25%" y="-60%" width="150%" height="220%" filterUnits="objectBoundingBox" id="filter-1"><feOffset in="SourceAlpha" result="shadowOffsetOuter1"/><feGaussianBlur stdDeviation="3" in="shadowOffsetOuter1" result="shadowBlurOuter1"/><feColorMatrix values="0 0 0 0 1 0 0 0 0 1 0 0 0 0 1 0 0 0 0.5 0" in="shadowBlurOuter1" result="shadowMatrixOuter1"/><feMerge><feMergeNode in="shadowMatrixOuter1"/><feMergeNode in="SourceGraphic"/></feMerge></filter></defs><g id="pro-profile" fill="none" fill-rule="evenodd"><g id="PROFILE-TABS-suscription-selected" transform="translate(-1162 -676)" fill="#56ACFF"><g id="Group-14-Copy-7" filter="url(#filter-1)" transform="translate(1168 682)"><path d="M6.14 13.097a3.964 3.964 0 0 0 5.393-1.48l.14.079-.14-.08a3.93 3.93 0 0 0-1.486-5.37L1.231 1.252c-.156.879.076 1.517.731 1.887l6.987 3.953a.527.527 0 1 1-.523.918l-6.6-3.734A1.705 1.705 0 0 0 2.632 6.2l4.402 2.491a.525.525 0 0 1 .2.72.531.531 0 0 1-.723.198l-4.16-2.353A1.704 1.704 0 0 0 3.16 9.18l2.274 1.287a.527.527 0 0 1 .199.72.532.532 0 0 1-.723.198l-.495-.28c.327.838.93 1.54 1.726 1.992z" id="Path" opacity=".4"/><path d="M.24.809A.902.902 0 0 1 1.563.232l9.008 5.095-.08.14.08-.14a4.984 4.984 0 0 1 1.884 6.811 5.025 5.025 0 0 1-6.838 1.877 4.986 4.986 0 0 1-2.487-3.637l-.494-.28A2.755 2.755 0 0 1 1.466 6.6a2.747 2.747 0 0 1-.55-2.921C.17 2.995-.038 1.993.24.809zm5.9 12.288a3.964 3.964 0 0 0 5.393-1.48l.14.079-.14-.08a3.93 3.93 0 0 0-1.486-5.37L1.231 1.252c-.156.879.076 1.517.731 1.887l6.987 3.953a.527.527 0 1 1-.523.918l-6.6-3.734A1.705 1.705 0 0 0 2.632 6.2l4.402 2.491a.525.525 0 0 1 .2.72.531.531 0 0 1-.723.198l-4.16-2.353A1.704 1.704 0 0 0 3.16 9.18l2.274 1.287a.527.527 0 0 1 .199.72.532.532 0 0 1-.723.198l-.495-.28c.327.838.93 1.54 1.726 1.992z" id="wing-copy-6" fill-rule="nonzero"/><g id="Group-11" transform="translate(11)"><path d="M6.038 13.097a3.964 3.964 0 0 0 5.392-1.48l.14.079-.14-.08a3.93 3.93 0 0 0-1.486-5.37L1.128 1.252c-.156.879.076 1.517.73 1.887l6.988 3.953a.527.527 0 1 1-.523.918l-6.6-3.734A1.705 1.705 0 0 0 2.53 6.2l4.402 2.491a.525.525 0 0 1 .2.72.531.531 0 0 1-.723.198L2.25 7.256a1.704 1.704 0 0 0 .808 1.924l2.274 1.287a.527.527 0 0 1 .199.72.532.532 0 0 1-.723.198l-.495-.28c.327.838.93 1.54 1.726 1.992z" id="Path" opacity=".4"/><path d="M.137.809A.902.902 0 0 1 1.46.232l9.008 5.095-.08.14.08-.14a4.984 4.984 0 0 1 1.883 6.811 5.025 5.025 0 0 1-6.837 1.877 4.986 4.986 0 0 1-2.487-3.637l-.494-.28A2.755 2.755 0 0 1 1.363 6.6a2.747 2.747 0 0 1-.55-2.921C.067 2.995-.141 1.993.137.809zm5.9 12.288a3.964 3.964 0 0 0 5.393-1.48l.14.079-.14-.08a3.93 3.93 0 0 0-1.486-5.37L1.128 1.252c-.156.879.076 1.517.73 1.887l6.988 3.953a.527.527 0 1 1-.523.918l-6.6-3.734A1.705 1.705 0 0 0 2.53 6.2l4.402 2.491a.525.525 0 0 1 .2.72.531.531 0 0 1-.723.198L2.25 7.256a1.704 1.704 0 0 0 .808 1.924l2.274 1.287a.527.527 0 0 1 .199.72.532.532 0 0 1-.723.198l-.495-.28c.327.838.93 1.54 1.726 1.992z" id="wing-copy-7" fill-rule="nonzero"/></g><g id="Group-11-Copy" transform="translate(22)"><path d="M6.038 13.097a3.964 3.964 0 0 0 5.392-1.48l.14.079-.14-.08a3.93 3.93 0 0 0-1.486-5.37L1.128 1.252c-.156.879.076 1.517.73 1.887l6.988 3.953a.527.527 0 1 1-.523.918l-6.6-3.734A1.705 1.705 0 0 0 2.53 6.2l4.402 2.491a.525.525 0 0 1 .2.72.531.531 0 0 1-.723.198L2.25 7.256a1.704 1.704 0 0 0 .808 1.924l2.274 1.287a.527.527 0 0 1 .199.72.532.532 0 0 1-.723.198l-.495-.28c.327.838.93 1.54 1.726 1.992z" id="Path" opacity=".4"/><path d="M.137.809A.902.902 0 0 1 1.46.232l9.008 5.095-.08.14.08-.14a4.984 4.984 0 0 1 1.883 6.811 5.025 5.025 0 0 1-6.837 1.877 4.986 4.986 0 0 1-2.487-3.637l-.494-.28A2.755 2.755 0 0 1 1.363 6.6a2.747 2.747 0 0 1-.55-2.921C.067 2.995-.141 1.993.137.809zm5.9 12.288a3.964 3.964 0 0 0 5.393-1.48l.14.079-.14-.08a3.93 3.93 0 0 0-1.486-5.37L1.128 1.252c-.156.879.076 1.517.73 1.887l6.988 3.953a.527.527 0 1 1-.523.918l-6.6-3.734A1.705 1.705 0 0 0 2.53 6.2l4.402 2.491a.525.525 0 0 1 .2.72.531.531 0 0 1-.723.198L2.25 7.256a1.704 1.704 0 0 0 .808 1.924l2.274 1.287a.527.527 0 0 1 .199.72.532.532 0 0 1-.723.198l-.495-.28c.327.838.93 1.54 1.726 1.992z" id="wing-copy-7" fill-rule="nonzero"/></g></g></g></g></svg>
